Origami/16x16/apps/groove.svg

<svg width="16" height="16" version="1" xmlns="http://www.w3.org/2000/svg">
 <rect transform="matrix(0,-1,-1,0,0,0)" x="-16" y="-16" width="16" height="16" rx="8" ry="8" style="fill:#00BCF2"/>
 <g transform="matrix(.70710678 -.70710678 .70710678 .70710678 -3.3137085 8)">
  <path d="m11 7.5 3 8.66e-5l-0.749935 0.9999134-2.25-6.46e-5z" style="fill:#71c1ff"/>
  <path d="m 8,2 a 6,6 0 0 0 -6,6 6,6 0 0 0 6,6 6,6 0 0 0 6,-6 6,6 0 0 0 -0.02539,-0.5 l -1.003906,0 A 5,5 0 0 1 13,8 5,5 0 0 1 8,13 5,5 0 0 1 3,8 5,5 0 0 1 8,3 5,5 0 0 1 12.763672,6.5 l 1.039062,0 A 6,6 0 0 0 8,2 Z" style="fill:#71c1ff"/>
 </g>
 <path d="m8 6a2 2 0 0 0 -2 2 2 2 0 0 0 2 2 2 2 0 0 0 2 -2 2 2 0 0 0 -2 -2zm0 1a1 1 0 0 1 1 1 1 1 0 0 1 -1 1 1 1 0 0 1 -1 -1 1 1 0 0 1 1 -1z" style="fill:#cae8ff"/>
</svg>

<svg xmlns="http://www.w3.org/2000/svg" width="16" height="16" version="1">
 <rect style="fill:#00BCF2" width="16" height="16" x="-16" y="-16" rx="8" ry="8" transform="matrix(0,-1,-1,0,0,0)"/>
 <g transform="matrix(0.70710678,-0.70710678,0.70710678,0.70710678,-3.3137085,8)">
  <path style="fill:#71c1ff" d="m 11,7.5 3,8.66e-5 L 13.250065,8.5 l -2.25,-6.46e-5 z"/>
  <path style="fill:#71c1ff" d="m 8,2 a 6,6 0 0 0 -6,6 6,6 0 0 0 6,6 6,6 0 0 0 6,-6 6,6 0 0 0 -0.02539,-0.5 l -1.003906,0 A 5,5 0 0 1 13,8 5,5 0 0 1 8,13 5,5 0 0 1 3,8 5,5 0 0 1 8,3 5,5 0 0 1 12.763672,6.5 l 1.039062,0 A 6,6 0 0 0 8,2 Z"/>
 </g>
 <path style="fill:#cae8ff" d="M 8 6 A 2 2 0 0 0 6 8 A 2 2 0 0 0 8 10 A 2 2 0 0 0 10 8 A 2 2 0 0 0 8 6 z M 8 7 A 1 1 0 0 1 9 8 A 1 1 0 0 1 8 9 A 1 1 0 0 1 7 8 A 1 1 0 0 1 8 7 z"/>
</svg>
